packages/kaspersky-hexa-ui-icons/src/iconsSVGs/24/Lighting.svg

<svg width="24" height="24" viewBox="0 0 24 24" fill="none" xmlns="http://www.w3.org/2000/svg">
<path fill-rule="evenodd" clip-rule="evenodd" d="M14.6376 1.07656C15.0404 1.24387 15.2883 1.65295 15.2502 2.08744L14.5871 9.64684H18.2448C18.6338 9.64684 18.9874 9.87237 19.1515 10.225C19.3156 10.5777 19.2603 10.9935 19.0097 11.291L9.75571 22.2801C9.47477 22.6137 9.00999 22.7267 8.6072 22.5594C8.20441 22.3921 7.95652 21.983 7.99463 21.5485L8.65775 13.9891H5.00001C4.61106 13.9891 4.2574 13.7636 4.09333 13.411C3.92927 13.0583 3.98457 12.6425 4.2351 12.345L13.4891 1.35592C13.7701 1.02229 14.2348 0.909242 14.6376 1.07656ZM7.14947 11.9891H9.74931C10.3361 11.9891 10.7968 12.492 10.7455 13.0765L10.2634 18.5723L16.0954 11.6468H13.4955C12.9087 11.6468 12.4481 11.144 12.4993 10.5595L12.9814 5.06371L7.14947 11.9891Z" fill="black"/>
</svg>

<svg xmlns="http://www.w3.org/2000/svg" width="24" height="24" fill="none" viewBox="0 0 24 24"><path fill="#000" fill-rule="evenodd" d="M14.6376 1.0766a1 1 0 0 1 .6126 1.0108l-.6631 7.5594h3.6577a1 1 0 0 1 .7649 1.6442l-9.254 10.9891a1 1 0 0 1-1.761-.7316l.663-7.5594H5a1 1 0 0 1-.7649-1.6441l9.254-10.989a1 1 0 0 1 1.1485-.2794M7.1495 11.989h2.5998c.5868 0 1.0475.5029.9962 1.0874l-.4821 5.4958 5.832-6.9255h-2.5999c-.5868 0-1.0474-.5028-.9962-1.0873l.4821-5.4958z"/></svg>
